src/assets/images/icons/instagram.svg

<svg width="24" height="24" viewBox="0 0 24 24" fill="none" xmlns="http://www.w3.org/2000/svg">
<path fill-rule="evenodd" clip-rule="evenodd" d="M21.2336 18.9816C20.8215 20.0175 20.0236 20.8155 18.9827 21.233C17.6458 21.7633 14.7347 21.7338 12.8465 21.7147C12.5332 21.7115 12.2481 21.7086 12.0029 21.7086C11.7625 21.7086 11.4835 21.7113 11.1771 21.7143C9.28836 21.7324 6.35975 21.7605 5.02317 21.233C3.98757 20.8208 3.18973 20.0228 2.77232 18.9816C2.24209 17.6445 2.27159 14.7327 2.29072 12.844C2.29389 12.5307 2.29678 12.2455 2.29678 12.0003C2.29678 11.7598 2.29411 11.4807 2.29117 11.1743C2.27305 9.28512 2.24496 6.35585 2.77232 5.01898C3.18445 3.98314 3.98228 3.18512 5.02317 2.76761C6.36006 2.23727 9.27115 2.26678 11.1594 2.28591C11.4727 2.28909 11.7578 2.29198 12.0029 2.29198C12.2434 2.29198 12.5224 2.2893 12.8288 2.28636C14.7175 2.26824 17.6461 2.24014 18.9827 2.76761C20.0183 3.17984 20.8162 3.97785 21.2336 5.01898C21.7638 6.35616 21.7343 9.2679 21.7152 11.1566C21.712 11.4699 21.7091 11.7551 21.7091 12.0003C21.7091 12.2454 21.712 12.5307 21.7152 12.8441C21.7343 14.7338 21.7638 17.6489 21.2336 18.9816ZM5.93197 12.0003C5.93197 8.63912 8.64251 5.92798 12.0029 5.92798C15.3634 5.92798 18.0739 8.63912 18.0739 12.0003C18.0739 15.3615 15.3634 18.0726 12.0029 18.0726C8.64251 18.0726 5.93197 15.3615 5.93197 12.0003ZM18.3223 7.09594C19.1042 7.09594 19.7383 6.46703 19.7383 5.67959C19.7383 4.89742 19.1042 4.26324 18.3223 4.26324C17.5403 4.26324 16.9062 4.89742 16.9062 5.67959C16.9062 6.46175 17.535 7.09594 18.3223 7.09594Z" fill="#262626"/>
<path fill-rule="evenodd" clip-rule="evenodd" d="M23.7592 7.11708C23.6694 5.2198 23.2361 3.53921 21.8465 2.15457C20.4622 0.769928 18.7819 0.336568 16.8851 0.24144C14.9301 0.130457 9.07049 0.130457 7.11552 0.24144C5.22396 0.331283 3.54374 0.764644 2.15412 2.14928C0.764508 3.53392 0.336528 5.21452 0.241421 7.11179C0.130464 9.0672 0.130464 14.9281 0.241421 16.8835C0.331244 18.7808 0.764508 20.4614 2.15412 21.8461C3.54374 23.2307 5.21867 23.664 7.11552 23.7592C9.07049 23.8702 14.9301 23.8702 16.8851 23.7592C18.7819 23.6693 20.4622 23.236 21.8465 21.8461C23.2308 20.4614 23.6641 18.7808 23.7592 16.8835C23.8702 14.9281 23.8702 9.07248 23.7592 7.11708ZM21.2336 18.9816C20.8215 20.0175 20.0236 20.8155 18.9827 21.233C17.6458 21.7633 14.7347 21.7338 12.8465 21.7147C12.5332 21.7115 12.2481 21.7086 12.0029 21.7086C11.7625 21.7086 11.4835 21.7113 11.1771 21.7143C9.28836 21.7324 6.35975 21.7605 5.02317 21.233C3.98757 20.8208 3.18973 20.0228 2.77232 18.9816C2.24209 17.6445 2.27159 14.7327 2.29072 12.844C2.29389 12.5307 2.29678 12.2455 2.29678 12.0003C2.29678 11.7598 2.29411 11.4807 2.29117 11.1743C2.27305 9.28512 2.24496 6.35585 2.77232 5.01898C3.18445 3.98314 3.98228 3.18512 5.02317 2.76761C6.36006 2.23727 9.27115 2.26678 11.1594 2.28591C11.4727 2.28909 11.7578 2.29198 12.0029 2.29198C12.2434 2.29198 12.5224 2.2893 12.8288 2.28636C14.7175 2.26824 17.6461 2.24014 18.9827 2.76761C20.0183 3.17984 20.8162 3.97785 21.2336 5.01898C21.7638 6.35616 21.7343 9.2679 21.7152 11.1566C21.712 11.4699 21.7091 11.7551 21.7091 12.0003C21.7091 12.2454 21.712 12.5307 21.7152 12.8441C21.7343 14.7338 21.7638 17.6489 21.2336 18.9816Z" fill="#262626"/>
<path d="M12.0029 15.9481C9.83135 15.9481 8.05602 14.1777 8.05602 12.0003C8.05602 9.82294 9.82606 8.0525 12.0029 8.0525C14.1798 8.0525 15.9499 9.82294 15.9499 12.0003C15.9499 14.1777 14.1746 15.9481 12.0029 15.9481Z" fill="#262626"/>
</svg>

<svg width="24" height="24" fill="none" xmlns="http://www.w3.org/2000/svg"><path fill-rule="evenodd" clip-rule="evenodd" d="M21.234 18.982a3.996 3.996 0 01-2.251 2.251c-1.337.53-4.248.5-6.136.482a87.3 87.3 0 00-.844-.006c-.24 0-.52.002-.826.005-1.889.018-4.817.047-6.154-.481a3.996 3.996 0 01-2.25-2.251c-.53-1.337-.501-4.25-.482-6.138.003-.313.006-.598.006-.844 0-.24-.003-.52-.006-.826-.018-1.889-.046-4.818.481-6.155a3.996 3.996 0 012.251-2.251c1.337-.53 4.248-.501 6.136-.482.314.003.599.006.844.006.24 0 .52-.003.826-.006 1.888-.018 4.817-.046 6.154.482a3.996 3.996 0 012.25 2.251c.53 1.337.501 4.249.482 6.138-.003.313-.006.598-.006.843s.003.53.006.844c.02 1.89.049 4.805-.481 6.138zM5.932 12a6.062 6.062 0 016.07-6.072A6.062 6.062 0 0118.075 12a6.062 6.062 0 01-6.071 6.073A6.062 6.062 0 015.932 12zm12.39-4.904a1.416 1.416 0 100-2.833 1.416 1.416 0 000 2.833z" fill="#262626"/><path fill-rule="evenodd" clip-rule="evenodd" d="M23.76 7.117c-.09-1.897-.524-3.578-1.914-4.962C20.462.77 18.782.337 16.886.24 14.93.13 9.07.13 7.116.24 5.224.33 3.544.764 2.154 2.148.764 3.534.337 5.215.241 7.112c-.11 1.955-.11 7.816 0 9.772.09 1.897.524 3.577 1.913 4.962 1.39 1.385 3.065 1.818 4.962 1.913 1.954.111 7.814.111 9.77 0 1.896-.09 3.576-.523 4.96-1.913 1.385-1.385 1.818-3.065 1.913-4.962.111-1.956.111-7.812 0-9.767zm-2.526 11.865a3.996 3.996 0 01-2.251 2.251c-1.337.53-4.248.5-6.136.482a87.3 87.3 0 00-.844-.006c-.24 0-.52.002-.826.005-1.889.018-4.817.047-6.154-.481a3.996 3.996 0 01-2.25-2.251c-.53-1.337-.501-4.25-.482-6.138.003-.313.006-.598.006-.844 0-.24-.003-.52-.006-.826-.018-1.889-.046-4.818.481-6.155a3.996 3.996 0 012.251-2.251c1.337-.53 4.248-.501 6.136-.482.314.003.599.006.844.006.24 0 .52-.003.826-.006 1.888-.018 4.817-.046 6.154.482a3.996 3.996 0 012.25 2.251c.53 1.337.501 4.249.482 6.138-.003.313-.006.598-.006.843s.003.53.006.844c.02 1.89.049 4.805-.481 6.138z" fill="#262626"/><path d="M12.003 15.948A3.955 3.955 0 018.056 12a3.951 3.951 0 013.947-3.947A3.951 3.951 0 0115.95 12a3.955 3.955 0 01-3.947 3.948z" fill="#262626"/></svg>
